!!!!SEGMENT: pl-kk--kk-i-387--004_anonim--zdrowas-badz-maria.krn
!!!cenid: 18xx:1418
!!!COM: Anonim
!!!COM-rismid: pe30004985
!!!CDT:
!!!CNT:
!!!OTL: Zdrowaś bądź Maria
!!!PDT:
!!!AGN: Sacred
!!!SMS-siglum: PL-Kk
!!!SMS-shelfmark: Kk.I.387
!!!SMS-shelfwork: 004 W
!!!SMS-variant:
!!!SMS-altvar:
!!!NIFC-rismid: 1001138313
!!!URL-scan: http://repozytorium.nifc.pl/skany/pl-kk-nut--i-387
!!!ONB-nifc:
**kern	**text	**kern	**text	**kern	**text	**kern	**text
*part4	*part4	*part3	*part3	*part2	*part2	*part1	*part1
*staff4	*staff4	*staff3	*staff3	*staff2	*staff2	*staff1	*staff1
*Ibass	*	*Itenor	*	*Ialto	*	*Isoprn	*
*I"Basso.	*	*I"Tenore.	*	*I"Alto.	*	*I"Soprano.	*
*I'B	*	*I'T	*	*I'A	*	*I'S	*
*clefF4	*	*clefC4	*	*clefC3	*	*clefC1	*
*k[b-e-a-]	*	*k[b-e-a-]	*	*k[b-e-a-]	*	*k[b-e-a-]	*
*E-:	*	*E-:	*	*E-:	*	*E-:	*
*M4/4	*	*M4/4	*	*M4/4	*	*M4/4	*
*met(c)	*	*met(c)	*	*met(c)	*	*met(c)	*
=1	=1	=1	=1	=1	=1	=1	=1
!LO:TX:t=P:problem:all\right:global	!	!	!	!	!	!	!LO:TX:a:t=P:problem:all\right
!LO:TX:t=P:problem:brak oznaczenia tempa	!	!	!	!LO:TX:t=P:problem:all\right:global	!	!LO:TX:t=P:problem:brak oznaczenia tempa	!
!LO:TX:t=P:problem:kolejność znaków BB- E- A-	!	!LO:TX:t=P:problem:brak oznaczenia tempa	!	!LO:TX:t=P:problem:brak oznaczenia tempa	!	!LO:TX:t=P:problem:kolejność znaków b- ee- a-	!
!LO:TX:t=P:problem:oznaczenie metryczne C z kropką	!	!LO:TX:t=P:problem:oznaczenie metryczne C z kropką	!	!LO:TX:t=P:problem:oznaczenie metryczne C z kropką	!	!LO:TX:t=P:problem:oznaczenie metryczne C z kropką	!
4E-\	Zdro-	4G/	Zdro-	4e-\	Zdro-	4b-\	Zdro-
4E-\	-waś	4E-/	-waś	4g\	-waś	4g\	-waś
!	!	!LO:TX:t=P:problem:all\right:global	!	!	!	!	!
4E-\	bądz	4B-\	bądz	4g\	bądx	4ee-\	bądz
4E-\	Ma-	8A-\L	Ma-	8f\L	Ma-	4b-\	Ma-
.	.	8G\J	.	8e-\J	.	.	.
=2	=2	=2	=2	=2	=2	=2	=2
*	*	*2\right	*	*2\right	*	*2\right	*
2AA-/	-ri-	2A-\	-ri-	2e-\	-ri-	2cc\	-ri-
4E-\	-a,	4G/	-a,	4e-\	-a,	4b-\	-a
4r	.	4r	.	4r	.	4r	.
=3	=3	=3	=3	=3	=3	=3	=3
4E-\	Ła-	4B-\	ła-	4g\	ła-	4gg\	Ła-
4E-\	-skis	4B-\	-skis	4g\	-skis	4ee-\	-skis
4E-\	Bo-	4B-\	Bo-	4b-\	Bo-	4b-\	Bo-
4E-\	-żey	8G\L	-żey	4b-\	-żey	8ee-\L	-żey
.	.	8B-\J	.	.	.	8gg\J	.
=4	=4	=4	=4	=4	=4	=4	=4
4BB-/	peł-	4B-\	peł-	4dd\	peł-	4ff\	peł-
4BB-/	-na,	4B-\	-na,	4dd\	-na,	4ff\	-na
2r	.	2r	.	2r	.	2r	.
!LO:LB:g=original	!	!LO:LB:g=original	!	!LO:LB:g=original	!	!	!
=5	=5	=5	=5	=5	=5	=5	=5
4E-\	Pan	4G/	Pan	4e-\	Pan	4b-\	Pan
!	!	!LO:SIC:v:l:s=z_to-	!	!	!	!	!
8E-\	z_to-	8E-/	z_tą-	8g\	z_to-	8g\	z_to-
8E-\	-bą	8E-/	-bą	8g\	-bą	8g\	-bą
!	!	!	!	!	!	!LO:LB:g=original	!
8E-\	bło-	8B-\	bło-	8g\	bło-	8ee-\	bło-
8E-\	-go-	8B-\	-go-	8g\	-go-	8ee-\	-go-
8E-\	-sła-	8A-\	-sła-	8f\	-sła-	8b-\	-sła-
8E-\	-wio-	8G/	-wio-	8e-\	-wio-	8b-\	-wio-
=6	=6	=6	=6	=6	=6	=6	=6
2AA-/	-nas	2A-\	-nas	2e-\	-naś	2cc\	-naś
4E-\	ty	4G/	ty	4e-\	ty,	4b-\	ty,
4r	.	4r	.	4r	.	4r	.
=7	=7	=7	=7	=7	=7	=7	=7
4E-\	mię-	4B-\	mię-	4g\	mię-	4gg\	mię-
4E-\	-dzy	4B-\	-dzy	4g\	-dzy	4ee-\	-dzy
4E-\	Nie-	4G/	Nie-	4b-\	Nie-	4b-\	Nie-
4E-\	-wias-	8G/L	-wias-	4b-\	-wia-	8ee-\L	-wia-
.	.	8B-/J	.	.	.	8gg\J	.
=8	=8	=8	=8	=8	=8	=8	=8
4BB-/	-ta-	4B-\	-ta-	4dd\	-sta-	4ff\	-sta-
4B-\	-mi,	4B-\	-mi	4dd\	-mi,	4ff\	-mi.
2r	.	2r	.	2r	.	2r	.
!LO:LB:g=original	!	!LO:LB:g=original	!	!LO:LB:g=original	!	!	!
=9	=9	=9	=9	=9	=9	=9	=9
4BB-/	i	4A-\	i	4dd\	i	4ff\	i
8BB-/	bło-	8A-\	bło-	8dd\	bło-	8ff\	bło-
8BB-/	-go-	8G\	-go-	8ee-\	-go-	8ee-\	-go-
!	!	!	!	!	!	!LO:LB:g=original	!
4BB-/	-sła-	4F/	-sła-	4b-\	-sła-	4dd\	-sła-
4D\	-wion	8F/L	-wion	4a-\	-wion	4b-\	-wion
.	.	8B-/J	.	.	.	.	.
=10	=10	=10	=10	=10	=10	=10	=10
4.E-\	O-	4.B-\	O-	4.g\	O-	4gg\	O-
.	.	.	.	.	.	4gg\	-woc
8F\	-woc	8B-\	-woc	8a-\	-woc	.	.
4G\	Ży-	4B-\	Ży-	4b-\	Ży-	4ee-\	Ży-
8A-\	-wo-	8B-\	-wo-	8dd\	-wo-	8ff\	-wo-
8G\	-ta	8B-\	-ta	8ee-\	-ta	8gg\	-ta
=11	=11	=11	=11	=11	=11	=11	=11
*2\right	*	*	*	*	*	*	*
2F\	two-	2d\	two-	2b-\	two-	2aa-\	two-
4E-\	-ie-	4e-\	-ie-	4b-\	-ie-	4gg\	-ie-
4E-\	-go	4e-\	-go	4b-\	-go	4gg\	-go
=12	=12	=12	=12	=12	=12	=12	=12
4BB-/	Je-	4d\	Je-	4b-\	Je-	4ff\	Je-
4BB-/	-zus.	4d\	-zus,	4b-\	-zus,	4ff\	-zus,
2r	.	2r	.	2r	.	2r	.
!LO:LB:g=original	!	!LO:LB:g=original	!	!LO:LB:g=original	!	!	!
=13	=13	=13	=13	=13	=13	=13	=13
4E-\	Swię-	4B-\	Swię-	4g\	swię-	4gg\	swię-
8D\	-ta	8Bn\	-ta	8g\	-ta	8ff\	-ta
8D\	Ma-	8B\	Ma-	8g\	Ma-	8ff\	Ma-
4C/	-ri-	4c\	-ri-	4g\	-ri-	4ee-\	-ri-
4G\	-a	4B-X\	-a	4g\	-a	4dd\	-a
!	!	!	!	!	!	!LO:LB:g=original	!
=14	=14	=14	=14	=14	=14	=14	=14
4A-\	Mat-	4c\	Mat-	4a-\	Mat-	4cc\	Mat-
4F\	-ko	4c\	-ko	4a-\	-ko	4aa-\	-ko
4G\	Bo-	4en\	Bo-	4b-\	Bo-	4gg\	Bo-
4A-\	-ża	4f\	-ża	4cc\	-ża	4ff\	-ża
=15	=15	=15	=15	=15	=15	=15	=15
2B-\	modl	2G/	modl	4b-\	modl	2ee-\	modl
.	.	.	.	4g\	.	.	.
4BB-/	się	4A-\	się	4f\	się	4dd\	się
4BB-/	za	4A-\	za	4b-\	za	4dd\	za
=16	=16	=16	=16	=16	=16	=16	=16
4E-\	na-	4G/	na-	4b-\	na-	4ee-\	na-
4E-\	-mi	4G/	-mi	4b-\	-mi	4ee-\	-mi
2r	.	2r	.	2r	.	2r	.
!	!	!	!	!LO:LB:g=original	!	!	!
=17	=17	=17	=17	=17	=17	=17	=17
4E-\	te-	4B-X\	te-	4g\	te-	4gg\	te-
4D\	-raz	4Bn\	-raz	4g\	-raz	4ff\	-raz
!LO:LB:g=original	!	!LO:LB:g=original	!	!	!	!	!
4C/	i	4c\	i	4g\	i	4ee-\	i
4G\	w_go-	4B-X\	w_go-	4g\	w_go-	4dd\	w_go-
=18	=18	=18	=18	=18	=18	=18	=18
4A-\	-dzi-	4c\	-dzi-	4a-\	-dzi-	4cc\	-dzi-
4F\	-ne	4c\	-ne	4a-\	-ne	4aa-\	-ne
4G\	smier-	4en\	smier-	4b-\	ſmier-	4gg\	smier-
4A-\	-ci	4f\	-ci	4cc\	-ci	4ff\	-ci
!	!	!	!	!	!	!LO:LB:g=original	!
=19	=19	=19	=19	=19	=19	=19	=19
2B-\	na-	2G/	na-	4b-\	na-	2ee-\	na-
.	.	.	.	4g\	.	.	.
2BB-/	-szey	2A-/	-szey	4f\	.	2dd\	-szey
.	.	.	.	4b-\	-szey	.	.
=20	=20	=20	=20	=20	=20	=20	=20
.	.	.	.	.	.	8qff/	.
4E-\	A-	4G/	A-	4b-\	A-	4ee-\	A-
4E-\	-men.	4G/	-men.	4b-\	-men.	4ee-\	-men.
2r	.	2r	.	2r	.	2r	.
==	==	==	==	==	==	==	==
*-	*-	*-	*-	*-	*-	*-	*-
!!!system-decoration: [(s1,s2,s3,s4)]
!!!EED: Leszek Kubiak
!!!EST: 2021-01-14
!!!ENC: Andrzej Kubiczek
!!!END: 2021-01-12
